ERK
CUT[ES RITT EIN HERR ZUM KUEHLEN WEIN]
REG[Europa, Mitteleuropa, Deutschland, Schlesien, Hainau]
TRD[]
FKT[]
SIG[E0185B]
KEY[E0185B  08  G 2/4]
MEL[1  3111  222
    2  4221  -7-6-5
    -5  1125  321 //]
BEM[]
MEL_SEM[4 -4 0 0 2 0 0 0 3 -3 0 -2 -1 -2 -2 0 5 0 2 5 -3 -2 -2]
MEL_RAW[1  3111  222
    2  4221  -7-6-5
    -5  1125  321]
NO_REP[1312
    2421-7-6-5
    -5125321]
RTM[x  xxxx  xxx
    x  xxxx  xxx
    x  xxxx  xxx]
SCL_DEG[-5-6-712345]
SCL_SEM[2 2 1 2 2 1 2]

